!!!OTL: McCarthy's Song
!!!ONM: 133.
**kern
*clefG2
*k[]
*C:
*M3/4
*MM80
{4g
=1
4cc
4.c
8c
=2
4e
4d
4c
=3
4.g
8g
4g
=4
4a
4g}
{4e
=5
4cc
4.c
8c
=6
4e
4.d
8c
=7
4.d
8e
4f
=8
4g
4r}
{4g
=9
4cc
4.c
8c
=10
4e
4d
4c
=11
4.g
8g
4g
=12
4a
4g}
{4c
=13
4.g
8e
4g
=14
4.e
8g
4e
=15
4.d
8c
4d
=16
2c}
==
*-
!!!CNT: Folksongs of Maritime Canada
!!!MRD: 1928///-1932///
!!!OCL: Helen Creighton
!!!YOR: Songs and Ballads from Nova Scotia
!!!PPR: J.M. Dent & Sons, Limited
!!!PPP: Toronto, Canada
!!!PDT: 1932///
!!!reprint: Dover Publications, 1992: ISBN 0-486-21703-5
!!!ENC1: Craig Stuart Sapp (music and bibliographic data)                       
!!!ENC2: Marcus Pearce (phrase markings and key designations)                   
!!!ENC3: Darrell Conklin (phrase markings and key designations)   
!!!END: 2002/04/10/
!!!EEV: 2004/06/05
!!!MPN: Mr. Ben Henneberry
!!!PPG: 288
!!!EFL: 135/152
!!!ARE: Canada; Nova Scotia
!!!verses: 14
!!!VTS: 3774923499
